build/img/icons/win.svg

<svg width="32" height="36" viewBox="0 0 32 36" fill="none" xmlns="http://www.w3.org/2000/svg">
<path d="M28.9109 14.3015H23.7792V13.5931C23.7792 13.1674 23.4341 12.8223 23.0084 12.8223H8.99463C8.56893 12.8223 8.22384 13.1674 8.22384 13.5931V14.3015H3.09208C2.66638 14.3015 2.32129 14.6466 2.32129 15.0723V18.5628C2.32129 19.5171 2.69296 20.4144 3.3678 21.0892C4.04264 21.764 4.93984 22.1357 5.89415 22.1357H8.42124C9.15921 25.3439 11.8873 27.8004 15.2308 28.1309V31.6006H13.1665C11.9742 31.6006 11.0041 32.5706 11.0041 33.7629V35.0303C11.0041 35.456 11.3492 35.8011 11.7749 35.8011H20.2283C20.6539 35.8011 20.999 35.456 20.999 35.0303V33.7629C20.999 32.5706 20.0289 31.6006 18.8366 31.6006H16.7724V28.1308C20.1159 27.8003 22.8439 25.3438 23.5819 22.1357H26.1089C28.0791 22.1357 29.6819 20.5329 29.6819 18.5627V15.0723C29.6817 14.6466 29.3366 14.3015 28.9109 14.3015ZM19.4574 33.7629V34.2595H12.5456V33.7629C12.5456 33.4206 12.8241 33.1422 13.1664 33.1422H18.8366C19.1789 33.1421 19.4574 33.4205 19.4574 33.7629ZM8.22509 20.5941H5.89408C5.35152 20.5941 4.8414 20.3828 4.45784 19.9992C4.07406 19.6155 3.86287 19.1054 3.86287 18.5629V15.8432H8.22516V20.5941H8.22509ZM22.2376 20.3913C22.2376 23.8299 19.4401 26.6274 16.0015 26.6274C12.5629 26.6274 9.76542 23.8299 9.76542 20.3913V14.3638H22.2376V20.3913ZM23.7778 15.8431H28.1402V18.5627C28.1402 19.6828 27.229 20.5941 26.1089 20.5941H23.7778V15.8431Z" fill="#37373F"/>
<path d="M12.7289 7.09889L12.1506 10.1508C12.095 10.4438 12.2135 10.7426 12.4548 10.9179C12.6962 11.0932 13.0168 11.1136 13.2784 10.9702L16.0022 9.47718L18.7262 10.9702C18.842 11.0337 18.9695 11.0651 19.0966 11.0651C19.2563 11.0651 19.4153 11.0155 19.5498 10.9179C19.791 10.7426 19.9095 10.4438 19.854 10.1508L19.2759 7.09889L21.5374 4.96975C21.7545 4.76531 21.8342 4.45398 21.7421 4.17033C21.6499 3.88668 21.4024 3.68165 21.1066 3.64392L18.0252 3.25082L16.6992 0.441772C16.5719 0.172069 16.3005 0 16.0022 0C15.704 0 15.4325 0.172069 15.3052 0.441772L13.9792 3.25082L10.8978 3.64392C10.602 3.68165 10.3545 3.88668 10.2623 4.17033C10.1702 4.45391 10.2499 4.76538 10.4671 4.96975L12.7289 7.09889ZM14.5934 4.72655C14.8546 4.69322 15.0806 4.52901 15.1929 4.29094L16.0022 2.57642L16.8115 4.29094C16.9239 4.52893 17.1499 4.69315 17.411 4.72655L19.2919 4.96652L17.9114 6.26607C17.7198 6.44651 17.6335 6.71217 17.6825 6.97079L18.0354 8.83375L16.3727 7.92238C16.2573 7.85911 16.1297 7.82747 16.0022 7.82747C15.8747 7.82747 15.7471 7.85911 15.6317 7.92238L13.9692 8.83368L14.3222 6.97079C14.3712 6.71225 14.2848 6.44643 14.0932 6.26607L12.7127 4.96652L14.5934 4.72655Z" fill="#FC9B09"/>
<path d="M31.9623 6.92039C31.8701 6.63674 31.6226 6.43171 31.3268 6.39397L29.1049 6.11047L28.1487 4.08484C28.0214 3.81514 27.7499 3.64307 27.4517 3.64307C27.1535 3.64307 26.882 3.81514 26.7547 4.08484L25.7985 6.11047L23.5766 6.39397C23.2807 6.43171 23.0333 6.63674 22.9411 6.92039C22.8489 7.20396 22.9286 7.51536 23.1458 7.7198L24.7768 9.25507L24.3597 11.4558C24.3041 11.7488 24.4226 12.0476 24.6639 12.2228C24.7984 12.3205 24.9574 12.3701 25.1171 12.3701C25.2441 12.3701 25.3717 12.3387 25.4875 12.2752L27.4517 11.1986L29.416 12.2752C29.6775 12.4186 29.9982 12.3982 30.2395 12.2228C30.4808 12.0475 30.5992 11.7488 30.5438 11.4558L30.1269 9.25507L31.7577 7.7198C31.9747 7.51536 32.0544 7.20404 31.9623 6.92039ZM28.7625 8.42225C28.5709 8.60261 28.4846 8.86835 28.5335 9.12697L28.7252 10.1387L27.8221 9.64377C27.7067 9.58049 27.5791 9.54885 27.4516 9.54885C27.3241 9.54885 27.1965 9.58049 27.0811 9.64377L26.1783 10.1386L26.37 9.12697C26.419 8.86843 26.3326 8.60261 26.141 8.42218L25.3913 7.7165L26.4126 7.5862C26.6737 7.55295 26.8997 7.38873 27.0121 7.15067L27.4516 6.21956L27.8911 7.15067C28.0034 7.38866 28.2294 7.55287 28.4905 7.5862L29.512 7.7165L28.7625 8.42225Z" fill="#FC9B09"/>
<path d="M4.54831 11.1986L6.51258 12.2752C6.77413 12.4187 7.09485 12.3983 7.33614 12.2229C7.57736 12.0476 7.69584 11.7489 7.64042 11.4559L7.22346 9.25514L8.8543 7.71988C9.07145 7.51544 9.15117 7.20411 9.05904 6.92046C8.96684 6.63681 8.71938 6.43178 8.42354 6.39405L6.20154 6.11047L5.24533 4.08484C5.11804 3.81514 4.8465 3.64307 4.54831 3.64307C4.25013 3.64307 3.97859 3.81514 3.8513 4.08484L2.89516 6.11047L0.67323 6.39397C0.377394 6.43171 0.129934 6.63674 0.0377332 6.92039C-0.0543944 7.20396 0.0253273 7.51536 0.242469 7.7198L1.87346 9.25507L1.45635 11.4558C1.40078 11.7488 1.51926 12.0476 1.76063 12.2228C1.89504 12.3205 2.05404 12.3701 2.21378 12.3701C2.34085 12.3701 2.46836 12.3387 2.5842 12.2752L4.54831 11.1986ZM3.50936 7.5862C3.77048 7.55295 3.9965 7.38873 4.10882 7.15067L4.54831 6.21956L4.98781 7.15067C5.10012 7.38866 5.32615 7.55287 5.58726 7.5862L6.60874 7.7165L5.85909 8.42225C5.6675 8.60261 5.58117 8.86835 5.63013 9.12697L5.8218 10.1387L4.91873 9.64377C4.80333 9.58049 4.67575 9.54885 4.54824 9.54885C4.42073 9.54885 4.29315 9.58049 4.17775 9.64377L3.2749 10.1386L3.46657 9.12697C3.5156 8.86843 3.4292 8.60261 3.23761 8.42218L2.48789 7.7165L3.50936 7.5862Z" fill="#FC9B09"/>
</svg>

<svg width="32" height="36" fill="none" xmlns="http://www.w3.org/2000/svg"><path d="M28.91 14.302h-5.13v-.709a.77.77 0 00-.772-.77H8.995a.77.77 0 00-.771.77v.709H3.092a.77.77 0 00-.77.77v3.49a3.55 3.55 0 001.046 2.527 3.55 3.55 0 002.526 1.047h2.527a7.796 7.796 0 006.81 5.995v3.47h-2.065c-1.192 0-2.162.97-2.162 2.162v1.267a.77.77 0 00.77.771h8.454a.77.77 0 00.771-.77v-1.268c0-1.192-.97-2.162-2.162-2.162h-2.065v-3.47a7.796 7.796 0 006.81-5.995h2.527a3.577 3.577 0 003.573-3.573v-3.49a.771.771 0 00-.771-.771zm-9.453 19.46v.498h-6.911v-.497a.62.62 0 01.62-.62h5.67a.62.62 0 01.621.62zM8.225 20.595h-2.33A2.018 2.018 0 014.457 20a2.018 2.018 0 01-.595-1.436v-2.72h4.362v4.751zm14.013-.203a6.243 6.243 0 01-6.236 6.236 6.243 6.243 0 01-6.237-6.236v-6.027h12.473v6.027zm1.54-4.548h4.362v2.72c0 1.12-.911 2.031-2.031 2.031h-2.331v-4.75z" fill="#37373F"/><path d="M12.729 7.099l-.578 3.052a.77.77 0 001.127.82l2.724-1.494 2.724 1.493a.77.77 0 001.128-.82l-.578-3.05 2.261-2.13a.771.771 0 00-.43-1.325l-3.082-.393L16.7.44a.77.77 0 00-1.394 0L13.98 3.25l-3.081.393a.77.77 0 00-.43 1.326l2.26 2.129zm1.864-2.372a.77.77 0 00.6-.436l.81-1.715.808 1.715a.771.771 0 00.6.436l1.88.24-1.38 1.3a.77.77 0 00-.229.704l.353 1.863-1.662-.912a.77.77 0 00-.741 0l-1.663.912.353-1.863a.77.77 0 00-.229-.705l-1.38-1.3 1.88-.24zM31.962 6.92a.77.77 0 00-.635-.526l-2.222-.284-.956-2.025a.77.77 0 00-1.394 0l-.956 2.025-2.222.284a.77.77 0 00-.431 1.326l1.63 1.535-.416 2.2a.77.77 0 001.128.82l1.964-1.076 1.964 1.076a.77.77 0 001.128-.82l-.417-2.2 1.63-1.535a.771.771 0 00.205-.8zm-3.2 1.502a.771.771 0 00-.229.705l.192 1.012-.903-.495a.77.77 0 00-.74 0l-.904.495.192-1.012a.771.771 0 00-.229-.705l-.75-.706 1.022-.13a.77.77 0 00.6-.435l.439-.931.44.93a.77.77 0 00.599.436l1.021.13-.75.706zM4.548 11.199l1.965 1.076a.77.77 0 001.127-.82l-.417-2.2L8.854 7.72a.77.77 0 00-.43-1.326L6.202 6.11l-.957-2.025a.77.77 0 00-1.394 0L2.895 6.11l-2.222.284a.77.77 0 00-.43 1.326l1.63 1.535-.417 2.2a.77.77 0 001.128.82L4.548 11.2zM3.51 7.586a.77.77 0 00.6-.435l.44-.931.439.93a.77.77 0 00.6.436l1.02.13-.749.706a.77.77 0 00-.229.705l.192 1.012-.903-.495a.77.77 0 00-.741 0l-.903.495.192-1.012a.771.771 0 00-.23-.705l-.75-.706 1.022-.13z" fill="#FC9B09"/></svg>
